packages/core/src/svgs/ppay.svg

<svg width="24" height="24" viewBox="0 0 24 24" fill="none" xmlns="http://www.w3.org/2000/svg">
<g clip-path="url(#clip0_31_16446)">
<path d="M0 0H24V24H0V0Z" fill="url(#paint0_linear_31_16446)"/>
<path d="M18.8571 11.2245L18.8443 11.1945L12 12.8574C9.59568 12.2831 5.38711 11.2545 5.15568 11.1945L5.14282 11.2374C5.52854 7.80878 8.45139 5.14307 12 5.14307C15.5485 5.14307 18.4714 7.80021 18.8571 11.2245ZM18.7843 13.2559L12 13.9288L5.21568 13.2516C5.30139 13.7059 5.42997 14.1388 5.59282 14.5545L12 15.0002L18.3857 14.6016C18.5614 14.1731 18.6985 13.7231 18.7843 13.2559ZM17.7 15.8659C15.8025 15.993 13.9016 16.0616 12 16.0716C10.1571 16.0545 7.58568 15.8702 6.23139 15.7631C6.45425 16.1016 6.70711 16.4188 6.98996 16.7145H17.01C17.2621 16.4503 17.4928 16.1666 17.7 15.8659ZM16.0243 17.5716H7.97139C9.14659 18.4113 10.5556 18.861 12 18.8574C13.5 18.8574 14.8928 18.3816 16.0243 17.5716Z" fill="white"/>
</g>
<defs>
<linearGradient id="paint0_linear_31_16446" x1="12" y1="0" x2="12" y2="24" gradientUnits="userSpaceOnUse">
<stop stop-color="#FB4440"/>
<stop offset="1" stop-color="#A72DC4"/>
</linearGradient>
<clipPath id="clip0_31_16446">
<rect width="24" height="24" fill="white"/>
</clipPath>
</defs>
</svg>

<svg xmlns="http://www.w3.org/2000/svg" width="24" height="24" fill="none" viewBox="0 0 24 24"><g clip-path="url(#a)"><path fill="url(#b)" d="M0 0h24v24H0z"/><path fill="#fff" d="m18.857 11.225-.013-.03L12 12.857c-2.404-.574-6.613-1.602-6.844-1.662l-.013.042C5.529 7.81 8.45 5.143 12 5.143s6.471 2.657 6.857 6.082m-.073 2.03L12 13.93l-6.784-.677c.085.454.214.887.377 1.303L12 15l6.386-.398c.175-.429.313-.879.398-1.346m-1.084 2.61a93 93 0 0 1-5.7.207c-1.843-.017-4.414-.202-5.769-.309q.334.508.759.952h10.02q.379-.397.69-.85m-1.676 1.707H7.971A6.9 6.9 0 0 0 12 18.857c1.5 0 2.893-.475 4.024-1.285"/></g><defs><linearGradient id="b" x1="12" x2="12" y1="0" y2="24" gradientUnits="userSpaceOnUse"><stop stop-color="#FB4440"/><stop offset="1" stop-color="#A72DC4"/></linearGradient><clipPath id="a"><path fill="#fff" d="M0 0h24v24H0z"/></clipPath></defs></svg>
